assets/icons/heart.svg

<svg fill="none" height="24" viewBox="0 0 24 24" width="24" xmlns="http://www.w3.org/2000/svg" xmlns:xlink="http://www.w3.org/1999/xlink"><clipPath id="a"><path d="m0 0h24v24h-24z"/></clipPath><mask id="b" height="24" maskUnits="userSpaceOnUse" width="24" x="0" y="0"><path d="m24 0h-24v24h24z" fill="#fff"/></mask><g clip-path="url(#a)"><g mask="url(#b)"><path d="m24 8.39072c-.0708.40594-.1219.81656-.2156 1.21875-.3136 1.34483-.9197 2.56313-1.6552 3.72183-1.3279 2.0916-2.9911 3.8972-4.7812 5.5932-1.5188 1.4406-3.1317 2.7785-4.8282 4.0049-.1645.1191-.3314.2344-.5235.3694-.4079-.2953-.8274-.5887-1.2357-.8976-1.97622-1.4967-3.84372-3.121-5.55841-4.9111-1.47891-1.5446-2.8336-3.1861-3.86813-5.0682-.615466-1.1207-1.08656-2.2968-1.2656225-3.57321-.0215625-.15328-.0454687-.30563-.0684375-.45797v-1.17188c.0201562-.12984.0417187-.25968.0604687-.38953.2395313-1.63453.9487513-3.02812 2.1712513-4.14187 1.14328-1.04438 2.50266-1.68516 4.04953-1.730154 2.38031-.066563 4.21355.991874 5.53125 2.964374.0586.08812.1125.17953.1842.2939.0469-.06937.082-.10922.1083-.15375.3768-.65039.8715-1.22488 1.4587-1.69406 1.3716-1.07812 2.9152-1.619058 4.6679-1.36641 2.6657.38391 4.8642 2.37704 5.5312 4.98188.1041.40547.1599.82312.2381 1.23516zm-12.9525-.43922c-.0096-.01933-.0171-.03959-.0225-.06047-.0028-.04687-.0033-.09375-.0042-.14062-.0338-1.80985-.8086-3.20813-2.34377-4.1686-.69281-.43406-1.46625-.73547-2.28047-.6614-1.85672.16875-3.21609 1.13297-3.99515 2.83172-.6511 1.41984-.52641 2.87296.00375 4.30547.53437 1.4433 1.38515 2.7033 2.33531 3.8986 1.68328 2.1183 3.63375 3.9707 5.71543 5.6897.5039.4157 1.021.8156 1.531 1.2225.0886-.0633.1528-.106.2142-.1533 2.0058-1.5371 3.8906-3.2105 5.6077-5.0653 1.0781-1.1639 2.0807-2.3907 2.8907-3.7604.6999-1.184 1.2558-2.41774 1.3125-3.82821.0694-1.71141-.5325-3.12281-1.8867-4.17188-.8658-.67078-1.852-1.07297-2.9775-.94547-2.0044.22688-3.7233 1.85344-4.0739 3.84375-.0675.38016-.0877.76875-.1308 1.16344z" fill="#000"/><path d="m4.01562 8.22306c.01433-.56483.19178-1.11345.51095-1.57968.54562-.78797 1.33264-1.065 1.72311-1.16484 1.14422-.28453 2.06017.2025 2.26594.31922" stroke="#000" stroke-miterlimit="10"/></g></g></svg>

<svg width="24" height="24" viewBox="0 0 24 24" fill="none" xmlns="http://www.w3.org/2000/svg">
<g clip-path="url(#clip0_235_2237)">
<mask id="mask0_235_2237" style="mask-type:alpha" maskUnits="userSpaceOnUse" x="0" y="0" width="24" height="24">
<path d="M24 0H0V24H24V0Z" fill="white"/>
</mask>
<g mask="url(#mask0_235_2237)">
<path d="M24 8.39072C23.9292 8.79666 23.8781 9.20728 23.7844 9.60947C23.4708 10.9543 22.8647 12.1726 22.1292 13.3313C20.8013 15.4229 19.1381 17.2285 17.348 18.9245C15.8292 20.3651 14.2163 21.703 12.5198 22.9294C12.3553 23.0485 12.1884 23.1638 11.9963 23.2988C11.5884 23.0035 11.1689 22.7101 10.7606 22.4012C8.78438 20.9045 6.91688 19.2802 5.20219 17.4901C3.72328 15.9455 2.36859 14.304 1.33406 12.4219C0.718594 11.3012 0.2475 10.1251 0.0684375 8.84869C0.046875 8.69541 0.0229688 8.54306 0 8.39072V7.21884C0.0201562 7.089 0.0417187 6.95916 0.0604687 6.82931C0.3 5.19478 1.00922 3.80119 2.23172 2.68744C3.375 1.64306 4.73438 1.00228 6.28125 0.957286C8.66156 0.890723 10.4948 1.94916 11.8125 3.92166C11.8711 4.00978 11.925 4.10119 11.9967 4.21556C12.0436 4.14619 12.0787 4.10634 12.105 4.06181C12.4818 3.41142 12.9765 2.83693 13.5637 2.36775C14.9353 1.28963 16.4789 0.748692 18.2316 1.00134C20.8973 1.38525 23.0958 3.37838 23.7628 5.98322C23.8669 6.38869 23.9227 6.80634 24.0009 7.21838L24 8.39072ZM11.0475 7.9515C11.0379 7.93217 11.0304 7.91191 11.025 7.89103C11.0222 7.84416 11.0217 7.79728 11.0208 7.75041C10.987 5.94056 10.2122 4.54228 8.67703 3.58181C7.98422 3.14775 7.21078 2.84634 6.39656 2.92041C4.53984 3.08916 3.18047 4.05338 2.40141 5.75213C1.75031 7.17197 1.875 8.62509 2.40516 10.0576C2.93953 11.5009 3.79031 12.7609 4.74047 13.9562C6.42375 16.0745 8.37422 17.9269 10.4559 19.6459C10.9598 20.0616 11.4769 20.4615 11.9869 20.8684C12.0755 20.8051 12.1397 20.7624 12.2011 20.7151C14.2069 19.178 16.0917 17.5046 17.8088 15.6498C18.8869 14.4859 19.8895 13.2591 20.6995 11.8894C21.3994 10.7054 21.9553 9.47166 22.012 8.06119C22.0814 6.34978 21.4795 4.93838 20.1253 3.88931C19.2595 3.21853 18.2733 2.81634 17.1478 2.94384C15.1434 3.17072 13.4245 4.79728 13.0739 6.78759C13.0064 7.16775 12.9862 7.55634 12.9431 7.95103L11.0475 7.9515Z" fill="black"/>
<path d="M4.01562 8.22306C4.02995 7.65823 4.2074 7.10961 4.52657 6.64338C5.07219 5.85541 5.85921 5.57838 6.24968 5.47854C7.3939 5.19401 8.30985 5.68104 8.51562 5.79776" stroke="black" stroke-miterlimit="10"/>
</g>
</g>
<defs>
<clipPath id="clip0_235_2237">
<rect width="24" height="24" fill="white"/>
</clipPath>
</defs>
</svg>
